icons/apps-16.svg

<svg width="16" height="16" viewBox="0 0 16 16" fill="none" xmlns="http://www.w3.org/2000/svg">
<path fill-rule="evenodd" clip-rule="evenodd" d="M1.5 3.25C1.5 2.2835 2.2835 1.5 3.25 1.5H5.75C6.7165 1.5 7.5 2.2835 7.5 3.25V5.75C7.5 6.7165 6.7165 7.5 5.75 7.5H3.25C2.2835 7.5 1.5 6.7165 1.5 5.75V3.25ZM3.25 3C3.11193 3 3 3.11193 3 3.25V5.75C3 5.88807 3.11193 6 3.25 6H5.75C5.88807 6 6 5.88807 6 5.75V3.25C6 3.11193 5.88807 3 5.75 3H3.25Z" fill="black"/>
<path fill-rule="evenodd" clip-rule="evenodd" d="M1.5 10.25C1.5 9.2835 2.2835 8.5 3.25 8.5H5.75C6.7165 8.5 7.5 9.2835 7.5 10.25V12.75C7.5 13.7165 6.7165 14.5 5.75 14.5H3.25C2.2835 14.5 1.5 13.7165 1.5 12.75V10.25ZM3.25 10C3.11193 10 3 10.1119 3 10.25V12.75C3 12.8881 3.11193 13 3.25 13H5.75C5.88807 13 6 12.8881 6 12.75V10.25C6 10.1119 5.88807 10 5.75 10H3.25Z" fill="black"/>
<path fill-rule="evenodd" clip-rule="evenodd" d="M8.5 3.25C8.5 2.2835 9.2835 1.5 10.25 1.5H12.75C13.7165 1.5 14.5 2.2835 14.5 3.25V5.75C14.5 6.7165 13.7165 7.5 12.75 7.5H10.25C9.2835 7.5 8.5 6.7165 8.5 5.75V3.25ZM10.25 3C10.1119 3 10 3.11193 10 3.25V5.75C10 5.88807 10.1119 6 10.25 6H12.75C12.8881 6 13 5.88807 13 5.75V3.25C13 3.11193 12.8881 3 12.75 3H10.25Z" fill="black"/>
<path fill-rule="evenodd" clip-rule="evenodd" d="M8.5 10.25C8.5 9.2835 9.2835 8.5 10.25 8.5H12.75C13.7165 8.5 14.5 9.2835 14.5 10.25V12.75C14.5 13.7165 13.7165 14.5 12.75 14.5H10.25C9.2835 14.5 8.5 13.7165 8.5 12.75V10.25ZM10.25 10C10.1119 10 10 10.1119 10 10.25V12.75C10 12.8881 10.1119 13 10.25 13H12.75C12.8881 13 13 12.8881 13 12.75V10.25C13 10.1119 12.8881 10 12.75 10H10.25Z" fill="black"/>
</svg>

<svg xmlns="http://www.w3.org/2000/svg" width="16" height="16" viewBox="0 0 16 16"><path fill-rule="evenodd" d="M1.5 3.25c0-.966.784-1.75 1.75-1.75h2.5c.966 0 1.75.784 1.75 1.75v2.5A1.75 1.75 0 015.75 7.5h-2.5A1.75 1.75 0 011.5 5.75v-2.5zM3.25 3a.25.25 0 00-.25.25v2.5c0 .138.112.25.25.25h2.5A.25.25 0 006 5.75v-2.5A.25.25 0 005.75 3h-2.5zM1.5 10.25c0-.966.784-1.75 1.75-1.75h2.5c.966 0 1.75.784 1.75 1.75v2.5a1.75 1.75 0 01-1.75 1.75h-2.5a1.75 1.75 0 01-1.75-1.75v-2.5zM3.25 10a.25.25 0 00-.25.25v2.5c0 .138.112.25.25.25h2.5a.25.25 0 00.25-.25v-2.5a.25.25 0 00-.25-.25h-2.5zM8.5 3.25c0-.966.784-1.75 1.75-1.75h2.5c.966 0 1.75.784 1.75 1.75v2.5a1.75 1.75 0 01-1.75 1.75h-2.5A1.75 1.75 0 018.5 5.75v-2.5zM10.25 3a.25.25 0 00-.25.25v2.5c0 .138.112.25.25.25h2.5a.25.25 0 00.25-.25v-2.5a.25.25 0 00-.25-.25h-2.5zM8.5 10.25c0-.966.784-1.75 1.75-1.75h2.5c.966 0 1.75.784 1.75 1.75v2.5a1.75 1.75 0 01-1.75 1.75h-2.5a1.75 1.75 0 01-1.75-1.75v-2.5zm1.75-.25a.25.25 0 00-.25.25v2.5c0 .138.112.25.25.25h2.5a.25.25 0 00.25-.25v-2.5a.25.25 0 00-.25-.25h-2.5z"/></svg>
